X:329
T: Mr Dolph Morris' Strathspey
R:Strathspey
M: C
L: 1/8
K:F
c>B|\
"F"A2 A>G "Dm"F<G A>F|"Gm"B>A G>F "C7"E<c d>e|"F"f>e d>c "Bb"d>c B>A|"Gm"B>A G>F "C7"G2 c>B|
"F"A2 A>G "Dm"F<G A>F|"Gm"D<B G>F "C"E<c d>e|"F"f>e d>c "Bb"B<D F<B|"C7"A>B, E>G "F"F2 c2|
"F"A<c c>A "Gm"B>c d>B|"C7"G<B B>G "F"A>B c>A|"Dm"F<A A>F "Gm"G>A B>G|"C7"c<C C>C C2 c>B|
"F"A<c c>A "Gm"B>c d>B|"C7"G<B B>G "F"A>B c>A|"Dm"f2 f2 "Bb"e>d c>B|"C7"A>C E<G "F"F2:|
